package/converter/svg/thin/outdent.svg

<svg xmlns="http://www.w3.org/2000/svg" viewBox="0 0 448 512"><!-- Font Awesome Pro 6.0.0-alpha2 by @fontawesome - https://fontawesome.com License - https://fontawesome.com/license (Commercial License) --><path d="M440 312H200C195.578 312 192 315.578 192 320S195.578 328 200 328H440C444.422 328 448 324.422 448 320S444.422 312 440 312ZM8 72H440C444.422 72 448 68.422 448 64S444.422 56 440 56H8C3.578 56 0 59.578 0 64S3.578 72 8 72ZM440 184H200C195.578 184 192 187.578 192 192S195.578 200 200 200H440C444.422 200 448 196.422 448 192S444.422 184 440 184ZM440 440H8C3.578 440 0 443.578 0 448S3.578 456 8 456H440C444.422 456 448 452.422 448 448S444.422 440 440 440ZM91.75 346.637C98.25 352.355 107.531 353.637 115.5 349.824C123.094 346.074 128 338.043 128 329.387V182.699C128 174.043 123.094 166.012 115.5 162.262C112.562 160.793 109.375 160.043 106 160.043C100.719 160.043 95.656 161.98 91.781 165.418L7.781 238.762C2.844 243.074 0 249.387 0 256.043S2.844 269.012 7.781 273.324L91.75 346.637ZM18.281 250.824L102.344 177.418C104.75 175.262 106.844 175.855 108.375 176.574C110.594 177.668 112 180.074 112 182.699V329.387C112 332.012 110.594 334.418 108.5 335.449C105.594 336.738 103.492 335.645 102.281 334.605L18.281 261.262C16.844 260.012 16 258.074 16 256.043S16.844 252.074 18.281 250.824Z"/></svg>

<svg xmlns="http://www.w3.org/2000/svg" viewBox="0 0 448 512"><!--! Font Awesome Pro 6.6.0 by @fontawesome - https://fontawesome.com License - https://fontawesome.com/license (Commercial License) Copyright 2024 Fonticons, Inc. --><path d="M0 64c0 4.4 3.6 8 8 8l432 0c4.4 0 8-3.6 8-8s-3.6-8-8-8L8 56c-4.4 0-8 3.6-8 8zM192 192c0 4.4 3.6 8 8 8l240 0c4.4 0 8-3.6 8-8s-3.6-8-8-8l-240 0c-4.4 0-8 3.6-8 8zm8 120c-4.4 0-8 3.6-8 8s3.6 8 8 8l240 0c4.4 0 8-3.6 8-8s-3.6-8-8-8l-240 0zM0 448c0 4.4 3.6 8 8 8l432 0c4.4 0 8-3.6 8-8s-3.6-8-8-8L8 440c-4.4 0-8 3.6-8 8zM17.2 256L112 177.9l0 156.2L17.2 256zM7 243.6C-.8 250-.8 262 7 268.4l94.8 78.1c10.4 8.6 26.2 1.2 26.2-12.4l0-156.2c0-13.5-15.7-20.9-26.2-12.4L7 243.6z"/></svg>
